X:3
T:La Chaise Noire
C:Gilles Vigneault
Z:robin.beech@mcgill.ca
R:reel
M:4/4
L:1/8
K:Gmin
G^FGA B2GB | AGF=E D4 | G^FGA B2BB | BABc B2A2 |
G^FGA B2GB | AGF=E D4 | GABc dedc | BGAF G4 |
Bcde f2ff | f=efg f2_e2 | edce dcBd | cBAG F4 |
Bcde f2ff | f=efg f2_e2 | edce dcBd | cBAF G4 |:
K:G
B2BB BGAB | c2cc cABc | d2dd edcB | AGFE D4 |
B2BB BGAB | c2cc cABc | d2dd gedc | BGAF G4 :|
